dist/svgs/org-apps.svg

<svg xmlns="http://www.w3.org/2000/svg" viewBox="0 0 512 512"><path d="M159 0q29 0 48.5 20T227 68v91q0 29-19.5 48.5T159 227H68q-28 0-48-19.5T0 159V68q0-28 20-48T68 0h91zm27 68q0-11-8-19t-19-8H68q-11 0-19 8t-8 19v91q0 11 8 19t19 8h91q11 0 19-8t8-19V68zM444 0q28 0 48 20t20 48v91q0 29-20 48.5T444 227h-91q-29 0-48.5-19.5T285 159V68q0-28 19.5-48T353 0h91zm27 68q0-11-8-19t-19-8h-91q-11 0-19 8t-8 19v91q0 11 8 19t19 8h91q11 0 19-8t8-19V68zM159 284q29 0 48.5 20t19.5 48v91q0 29-19.5 48.5T159 511H68q-28 0-48-19.5T0 443v-91q0-28 20-48t48-20h91zm27 69q0-11-8-19.5t-19-8.5H68q-11 0-19 8.5T41 353v91q0 11 8 19t19 8h91q11 0 19-8t8-19v-91zm258-69q28 0 48 20t20 48v91q0 29-20 48.5T444 511h-91q-29 0-48.5-19.5T285 443v-91q0-28 19.5-48t48.5-20h91zm27 69q0-11-8-19.5t-19-8.5h-91q-11 0-19 8.5t-8 19.5v91q0 11 8 19t19 8h91q11 0 19-8t8-19v-91z"/></svg>

<?xml version="1.0" encoding="UTF-8" standalone="no"?><svg   xmlns:svg="http://www.w3.org/2000/svg"   xmlns="http://www.w3.org/2000/svg"   version="1.1"   width="512"   height="512"   viewBox="0 0 512 512">  <path     d="M159 0Q188 0 207.5 20T227 68V159Q227 188 207.5 207.5T159 227H68Q40 227 20 207.5T0 159V68Q0 40 20 20T68 0H159zM186 68Q186 57 178 49T159 41H68Q57 41 49 49T41 68V159Q41 170 49 178T68 186H159Q170 186 178 178T186 159V68zM444 0Q472 0 492 20T512 68V159Q512 188 492 207.5T444 227H353Q324 227 304.5 207.5T285 159V68Q285 40 304.5 20T353 0H444zM471 68Q471 57 463 49T444 41H353Q342 41 334 49T326 68V159Q326 170 334 178T353 186H444Q455 186 463 178T471 159V68zM159 284Q188 284 207.5 304T227 352V443Q227 472 207.5 491.5T159 511H68Q40 511 20 491.5T0 443V352Q0 324 20 304T68 284H159zM186 353Q186 342 178 333.5T159 325H68Q57 325 49 333.5T41 353V444Q41 455 49 463T68 471H159Q170 471 178 463T186 444V353zM444 284Q472 284 492 304T512 352V443Q512 472 492 491.5T444 511H353Q324 511 304.5 491.5T285 443V352Q285 324 304.5 304T353 284H444zM471 353Q471 342 463 333.5T444 325H353Q342 325 334 333.5T326 353V444Q326 455 334 463T353 471H444Q455 471 463 463T471 444V353z"     id="org-apps" /></svg>
